svg/aws-ec2-t3.svg

<?xml version="1.0" encoding="UTF-8"?>
<svg xmlns="http://www.w3.org/2000/svg" xmlns:xlink="http://www.w3.org/1999/xlink" width="32" height="32" viewBox="0 0 32 32">
<path fill-rule="evenodd" fill="rgb(83.137255%, 35.686275%, 2.745098%)" fill-opacity="1" d="M 18.59375 19.347656 C 17.996094 19.347656 17.414062 19.226562 16.839844 18.976562 L 16.839844 18.097656 C 17.519531 18.328125 18.09375 18.445312 18.554688 18.445312 C 18.996094 18.445312 19.335938 18.347656 19.570312 18.148438 C 19.808594 17.953125 19.929688 17.675781 19.929688 17.316406 C 19.929688 16.628906 19.496094 16.289062 18.632812 16.289062 C 18.355469 16.289062 18.058594 16.308594 17.734375 16.34375 L 17.734375 15.625 L 19.574219 13.628906 L 16.933594 13.628906 L 16.933594 12.742188 L 20.789062 12.742188 L 20.789062 13.589844 L 18.847656 15.496094 C 18.933594 15.488281 19.019531 15.484375 19.105469 15.484375 C 19.46875 15.484375 19.796875 15.5625 20.089844 15.714844 C 20.386719 15.867188 20.621094 16.082031 20.796875 16.363281 C 20.96875 16.640625 21.058594 16.964844 21.058594 17.324219 C 21.058594 17.714844 20.960938 18.0625 20.761719 18.371094 C 20.5625 18.675781 20.273438 18.914062 19.902344 19.085938 C 19.527344 19.261719 19.09375 19.347656 18.59375 19.347656 M 12.96875 13.675781 L 10.941406 13.675781 L 10.941406 12.742188 L 16.132812 12.742188 L 16.132812 13.675781 L 14.105469 13.675781 L 14.105469 19.210938 L 12.96875 19.210938 Z M 6 26 L 26 26 L 26 6 L 6 6 Z M 30.667969 8.667969 L 30.667969 7.332031 L 27.332031 7.332031 L 27.332031 5.332031 C 27.332031 4.964844 27.035156 4.667969 26.667969 4.667969 L 24.667969 4.667969 L 24.667969 1.332031 L 23.332031 1.332031 L 23.332031 4.667969 L 20.667969 4.667969 L 20.667969 1.332031 L 19.332031 1.332031 L 19.332031 4.667969 L 16.667969 4.667969 L 16.667969 1.332031 L 15.332031 1.332031 L 15.332031 4.667969 L 12.667969 4.667969 L 12.667969 1.332031 L 11.332031 1.332031 L 11.332031 4.667969 L 8.667969 4.667969 L 8.667969 1.332031 L 7.332031 1.332031 L 7.332031 4.667969 L 5.332031 4.667969 C 4.964844 4.667969 4.667969 4.964844 4.667969 5.332031 L 4.667969 7.332031 L 1.332031 7.332031 L 1.332031 8.667969 L 4.667969 8.667969 L 4.667969 11.332031 L 1.332031 11.332031 L 1.332031 12.667969 L 4.667969 12.667969 L 4.667969 15.332031 L 1.332031 15.332031 L 1.332031 16.667969 L 4.667969 16.667969 L 4.667969 19.332031 L 1.332031 19.332031 L 1.332031 20.667969 L 4.667969 20.667969 L 4.667969 23.332031 L 1.332031 23.332031 L 1.332031 24.667969 L 4.667969 24.667969 L 4.667969 26.667969 C 4.667969 27.035156 4.964844 27.332031 5.332031 27.332031 L 7.332031 27.332031 L 7.332031 30.667969 L 8.667969 30.667969 L 8.667969 27.332031 L 11.332031 27.332031 L 11.332031 30.667969 L 12.667969 30.667969 L 12.667969 27.332031 L 15.332031 27.332031 L 15.332031 30.667969 L 16.667969 30.667969 L 16.667969 27.332031 L 19.332031 27.332031 L 19.332031 30.667969 L 20.667969 30.667969 L 20.667969 27.332031 L 23.332031 27.332031 L 23.332031 30.667969 L 24.667969 30.667969 L 24.667969 27.332031 L 26.667969 27.332031 C 27.035156 27.332031 27.332031 27.035156 27.332031 26.667969 L 27.332031 24.667969 L 30.667969 24.667969 L 30.667969 23.332031 L 27.332031 23.332031 L 27.332031 20.667969 L 30.667969 20.667969 L 30.667969 19.332031 L 27.332031 19.332031 L 27.332031 16.667969 L 30.667969 16.667969 L 30.667969 15.332031 L 27.332031 15.332031 L 27.332031 12.667969 L 30.667969 12.667969 L 30.667969 11.332031 L 27.332031 11.332031 L 27.332031 8.667969 Z M 30.667969 8.667969 "/>
</svg>

<svg role="img" viewBox="0 0 32 32" xmlns="http://www.w3.org/2000/svg"><path d="M18.594 19.348q-.895.002-1.754-.371v-.88q1.022.347 1.715.348.662.002 1.015-.297.36-.292.36-.832-.001-1.029-1.297-1.027c-.278 0-.574.02-.899.055v-.719l1.84-1.996h-2.64v-.887h3.855v.848l-1.941 1.906q.13-.012.257-.012.546.002.985.23.444.228.707.65c.172.277.262.6.262.96q0 .584-.297 1.047-.302.457-.86.715c-.375.176-.808.262-1.308.262m-5.625-5.672H10.94v-.934h5.192v.934h-2.028v5.535H12.97ZM6 26h20V6H6ZM30.668 8.668V7.332h-3.336v-2a.664.664 0 0 0-.664-.664h-2V1.332h-1.336v3.336h-2.664V1.332h-1.336v3.336h-2.664V1.332h-1.336v3.336h-2.664V1.332h-1.336v3.336H8.668V1.332H7.332v3.336h-2a.664.664 0 0 0-.664.664v2H1.332v1.336h3.336v2.664H1.332v1.336h3.336v2.664H1.332v1.336h3.336v2.664H1.332v1.336h3.336v2.664H1.332v1.336h3.336v2c0 .367.297.664.664.664h2v3.336h1.336v-3.336h2.664v3.336h1.336v-3.336h2.664v3.336h1.336v-3.336h2.664v3.336h1.336v-3.336h2.664v3.336h1.336v-3.336h2a.664.664 0 0 0 .664-.664v-2h3.336v-1.336h-3.336v-2.664h3.336v-1.336h-3.336v-2.664h3.336v-1.336h-3.336v-2.664h3.336v-1.336h-3.336V8.668Zm0 0" fill="rgb(83.137256%, 35.686275%, 2.745098%)" fill-rule="evenodd"/></svg>
